X: 24523
T: Lucy Farr's
R: barndance
M: 4/4
K: Gmajor
|:"G"G4 G4|"Bm"GABG E2 D2|"C"B4 B4|"D"BcdB A3 A|
"G"BcdB G2 G2|"Bm"GABG E2D2|"C"DEGA BddB|"D"A2 G2 "C"G4:|
|:"G"BcdB G2 G2|"Bm"GABG E2 D2|"C"DEGA BddB|"D"B2 A2 A3 A|
"G"BcdB G2 G2|"Bm"GABG E2 D2|"C"DEGA BddB|"D"A2 G2 "G"G4:|

